assets/images/ico_link_w.svg

<svg width="15" height="15" viewBox="0 0 15 15" fill="none" xmlns="http://www.w3.org/2000/svg">
<path d="M13.0184 7.25537C13.0184 7.70912 13.0184 8.16122 13.0184 8.61497C13.0184 9.29968 13.0184 9.98439 13.0184 10.6691C13.0184 10.8968 13.025 11.1245 12.9955 11.3505C13.002 11.3063 13.007 11.2637 13.0135 11.2195C12.9824 11.439 12.9251 11.6503 12.8399 11.8551C12.8563 11.8157 12.8726 11.7764 12.889 11.7371C12.8268 11.8829 12.7514 12.0221 12.6646 12.1532C12.6433 12.1859 12.6204 12.2171 12.5974 12.2498C12.5467 12.3203 12.6286 12.2187 12.6286 12.2105C12.6286 12.2187 12.5925 12.2547 12.5876 12.2597C12.5368 12.3203 12.4844 12.3776 12.4287 12.4333C12.373 12.489 12.3157 12.5414 12.2551 12.5922C12.242 12.6037 12.2272 12.6151 12.2141 12.6266C12.1699 12.6626 12.3157 12.5512 12.2534 12.5955C12.219 12.62 12.1846 12.6462 12.1486 12.6692C12.0176 12.7576 11.8783 12.8313 11.7325 12.8936C11.7719 12.8772 11.8112 12.8608 11.8505 12.8444C11.6474 12.9296 11.4344 12.987 11.2149 13.0181C11.2591 13.0115 11.3017 13.0066 11.346 13.0001C11.0036 13.0443 10.6465 13.023 10.3025 13.023C9.64893 13.023 8.99698 13.023 8.34339 13.023C7.54238 13.023 6.73972 13.023 5.93871 13.023C5.25564 13.023 4.57093 13.023 3.88785 13.023C3.58973 13.023 3.2916 13.0246 2.99511 13.023C2.88045 13.023 2.76742 13.0148 2.65439 13.0001C2.69862 13.0066 2.74121 13.0115 2.78544 13.0181C2.56594 12.987 2.35463 12.9296 2.14987 12.8444C2.18918 12.8608 2.2285 12.8772 2.26781 12.8936C2.12202 12.8313 1.98279 12.756 1.85174 12.6692C1.81898 12.6479 1.78786 12.6249 1.75509 12.602C1.68466 12.5512 1.78622 12.6331 1.79441 12.6331C1.78622 12.6331 1.75018 12.5971 1.74527 12.5922C1.68466 12.5414 1.62733 12.489 1.57163 12.4333C1.51594 12.3776 1.46352 12.3203 1.41274 12.2597C1.40127 12.2466 1.38981 12.2318 1.37834 12.2187C1.3423 12.1745 1.45369 12.3203 1.40946 12.258C1.38489 12.2236 1.35868 12.1892 1.33575 12.1532C1.24729 12.0221 1.17358 11.8829 1.11134 11.7371C1.12772 11.7764 1.1441 11.8157 1.16048 11.8551C1.0753 11.6519 1.01797 11.439 0.986843 11.2195C0.993395 11.2637 0.998309 11.3063 1.00486 11.3505C0.960634 11.0082 0.981928 10.6511 0.981928 10.3071C0.981928 9.6535 0.981928 9.00155 0.981928 8.34796C0.981928 7.54695 0.981928 6.7443 0.981928 5.94328C0.981928 5.26021 0.981928 4.5755 0.981928 3.89243C0.981928 3.5943 0.98029 3.29617 0.981928 2.99968C0.981928 2.88502 0.990119 2.77199 1.00486 2.65896C0.998309 2.70319 0.993395 2.74578 0.986843 2.79001C1.01797 2.57051 1.0753 2.3592 1.16048 2.15444C1.1441 2.19375 1.12772 2.23307 1.11134 2.27238C1.17358 2.12659 1.24893 1.98736 1.33575 1.85631C1.35705 1.82355 1.37998 1.79243 1.40291 1.75967C1.45369 1.68923 1.37179 1.79079 1.37179 1.79898C1.37179 1.79079 1.40782 1.75475 1.41274 1.74984C1.46352 1.68923 1.51594 1.6319 1.57163 1.5762C1.62733 1.52051 1.68466 1.46809 1.74527 1.41731C1.75837 1.40585 1.77311 1.39438 1.78622 1.38291C1.83045 1.34687 1.68466 1.45826 1.7469 1.41404C1.7813 1.38946 1.8157 1.36326 1.85174 1.34032C1.98279 1.25187 2.12202 1.17815 2.26781 1.11591C2.2285 1.13229 2.18918 1.14867 2.14987 1.16505C2.35299 1.07987 2.56594 1.02254 2.78544 0.991415C2.74121 0.997967 2.69862 1.00288 2.65439 1.00943C2.8526 0.983225 3.05244 0.986501 3.25229 0.986501C3.54222 0.986501 3.83216 0.986501 4.1221 0.986501C4.82974 0.986501 5.53902 0.986501 6.24667 0.986501C6.41375 0.986501 6.58247 0.986501 6.74955 0.986501C7.00673 0.986501 7.25244 0.760448 7.24097 0.495081C7.22951 0.228077 7.02475 0.00366211 6.74955 0.00366211C6.33512 0.00366211 5.92069 0.00366211 5.5079 0.00366211C4.83793 0.00366211 4.16796 0.00366211 3.49799 0.00366211C3.33583 0.00366211 3.17202 0.00366211 3.00985 0.00366211C2.53318 0.00366211 2.07124 0.116689 1.64534 0.326361C0.642849 0.819418 0.00400416 1.89071 0.000728029 2.99968C-0.000910036 3.22901 0.000728029 3.45834 0.000728029 3.68931C0.000728029 4.2528 0.000728029 4.81629 0.000728029 5.37979C0.000728029 6.08907 0.000728029 6.79671 0.000728029 7.506C0.000728029 8.17105 0.000728029 8.8361 0.000728029 9.50116C0.000728029 9.93361 0.000728029 10.3677 0.000728029 10.8001C0.000728029 10.8706 0.000728029 10.941 0.000728029 11.0131C0.00236609 11.5356 0.138325 12.0549 0.398778 12.507C0.92951 13.4309 1.93692 14.0058 2.99839 14.0091C3.25229 14.0107 3.50619 14.0091 3.76009 14.0091C4.33668 14.0091 4.91328 14.0091 5.48988 14.0091C6.2008 14.0091 6.91172 14.0091 7.62264 14.0091C8.2795 14.0091 8.93637 14.0091 9.59323 14.0091C10.0077 14.0091 10.4221 14.0091 10.8365 14.0091C10.9086 14.0091 10.9823 14.0107 11.0544 14.0091C11.6113 13.9993 12.1732 13.8355 12.6384 13.5259C13.4885 12.9624 14.0029 12.0139 14.0045 10.9918C14.0045 10.5053 14.0045 10.0204 14.0045 9.53392C14.0045 8.88852 14.0045 8.24476 14.0045 7.59937C14.0045 7.4847 14.0045 7.37167 14.0045 7.25701C14.0045 6.99983 13.7785 6.75412 13.5131 6.76559C13.2428 6.77542 13.0184 6.98018 13.0184 7.25537Z" fill="white"/>
<path d="M9.87462 0.983083C10.2841 0.983083 10.6953 0.983083 11.1048 0.983083C11.7584 0.983083 12.4104 0.983083 13.0639 0.983083C13.213 0.983083 13.3621 0.983083 13.5111 0.983083C13.7683 0.983083 14.014 0.75703 14.0026 0.491663C13.9911 0.224659 13.7863 0.000244141 13.5111 0.000244141C13.1016 0.000244141 12.6905 0.000244141 12.2809 0.000244141C11.6274 0.000244141 10.9754 0.000244141 10.3218 0.000244141C10.1727 0.000244141 10.0237 0.000244141 9.87462 0.000244141C9.61744 0.000244141 9.37173 0.226297 9.3832 0.491663C9.39467 0.758668 9.59942 0.983083 9.87462 0.983083Z" fill="white"/>
<path d="M13.9985 4.12831C13.9985 3.71879 13.9985 3.30764 13.9985 2.89812C13.9985 2.24453 13.9985 1.59258 13.9985 0.938997C13.9985 0.789933 13.9985 0.640869 13.9985 0.491805C13.9985 0.234629 13.7724 -0.0110803 13.507 0.000386199C13.24 0.0118526 13.0156 0.216611 13.0156 0.491805C13.0156 0.901321 13.0156 1.31248 13.0156 1.72199C13.0156 2.37558 13.0156 3.02753 13.0156 3.68112C13.0156 3.83018 13.0156 3.97924 13.0156 4.12831C13.0156 4.38548 13.2417 4.63119 13.507 4.61973C13.774 4.60826 13.9985 4.4035 13.9985 4.12831Z" fill="white"/>
<path d="M7.3593 7.33735C7.57553 7.12113 7.79339 6.90327 8.00961 6.68704C8.5256 6.17105 9.04323 5.65343 9.55922 5.13744C10.1833 4.51334 10.8074 3.88924 11.4332 3.2635C11.9754 2.7213 12.5159 2.18074 13.0581 1.63854C13.3202 1.37645 13.5889 1.11764 13.846 0.850633C13.8493 0.847357 13.8526 0.844081 13.8575 0.839167C14.0393 0.657342 14.0524 0.323178 13.8575 0.144629C13.6609 -0.0355577 13.3563 -0.0503002 13.163 0.144629C12.9467 0.360853 12.7289 0.578715 12.5127 0.794939C11.9967 1.31093 11.479 1.82856 10.963 2.34454C10.3389 2.96865 9.71484 3.59275 9.0891 4.21849C8.5469 4.76068 8.00634 5.30124 7.46414 5.84344C7.20205 6.10553 6.93341 6.36435 6.67623 6.63135C6.67295 6.63463 6.66968 6.6379 6.66476 6.64282C6.48294 6.82464 6.46983 7.15881 6.66476 7.33735C6.86133 7.51754 7.16601 7.53228 7.3593 7.33735Z" fill="white"/>
</svg>

<svg width="15" height="15" fill="none" xmlns="http://www.w3.org/2000/svg"><path d="M13.018 7.255v3.415c0 .228.007.455-.023.681l.019-.13c-.032.219-.089.43-.174.635l.049-.118a2.607 2.607 0 01-.224.416l-.068.097c-.05.07.032-.031.032-.04 0 .009-.037.045-.041.05a2.668 2.668 0 01-.333.332c-.013.012-.028.023-.04.035-.045.036.1-.076.038-.032-.034.025-.068.051-.104.074a2.49 2.49 0 01-.416.225l.117-.05a2.572 2.572 0 01-.635.174l.131-.018c-.342.044-.7.023-1.043.023H3.888c-.298 0-.596.002-.893 0-.115 0-.228-.008-.34-.023l.13.018a2.591 2.591 0 01-.635-.174l.118.05a2.613 2.613 0 01-.416-.225c-.033-.021-.064-.044-.097-.067-.07-.05.031.031.04.031-.009 0-.045-.036-.05-.04a2.666 2.666 0 01-.332-.333l-.035-.041c-.036-.044.076.101.031.039-.024-.034-.05-.069-.073-.105a2.484 2.484 0 01-.225-.416l.05.118a2.575 2.575 0 01-.174-.636l.018.132c-.044-.343-.023-.7-.023-1.044V3.893c0-.299-.002-.597 0-.893 0-.115.008-.228.023-.341l-.018.131c.031-.22.088-.43.173-.636-.016.04-.032.08-.049.118a2.69 2.69 0 01.225-.416c.021-.032.044-.064.067-.096.05-.07-.031.03-.031.039 0-.008.036-.044.04-.05a2.663 2.663 0 01.333-.332l.041-.034c.044-.036-.101.075-.04.031l.106-.074c.13-.088.27-.162.416-.224l-.118.049c.203-.085.416-.142.635-.174l-.13.018c.198-.026.397-.022.597-.022H6.75c.257 0 .502-.227.491-.492A.5.5 0 006.75.004H3.01c-.477 0-.939.113-1.365.322C.643.82.004 1.891.001 3c-.002.229 0 .458 0 .69v7.322a3.02 3.02 0 00.398 1.494 3.027 3.027 0 002.6 1.502c.253.002.507 0 .761 0h7.076c.073 0 .146.002.218 0a2.975 2.975 0 001.584-.483 3.045 3.045 0 001.367-2.534V7.257c0-.257-.227-.503-.492-.491a.498.498 0 00-.495.49zM9.875.983h3.636c.257 0 .503-.226.492-.491A.5.5 0 0013.51 0H9.875c-.258 0-.503.226-.492.492a.5.5 0 00.492.491z" fill="#fff"/><path d="M13.998 4.128V.492c0-.257-.226-.503-.491-.492a.5.5 0 00-.491.492v3.636c0 .257.226.503.491.492a.5.5 0 00.492-.492z" fill="#fff"/><path d="M7.36 7.337l.65-.65 1.55-1.55 1.873-1.873 1.625-1.625c.262-.263.53-.521.788-.788l.011-.012c.182-.182.195-.516 0-.694a.499.499 0 00-.694 0l-.65.65-1.55 1.55-1.874 1.873-1.625 1.625c-.262.263-.53.521-.788.788l-.011.012c-.182.182-.195.516 0 .694.196.18.501.195.694 0z" fill="#fff"/></svg>
